X:1
T:My Gal's a Corker
M:4/4
L:1/8
K:G
 D D2 EG-A B2| A A2 BA-G E2| A A2 BA FE D| G G2 E D4| D D2 EG A B2|\
 A A2 BA G E2| A A2 BA FE D| G8|
